src/Pure/16/symbolic/apps/org.gnome.Settings-location-symbolic.svg

<?xml version="1.0" encoding="UTF-8" standalone="no"?>
<svg
   width="16px"
   height="16px"
   version="1.1"
   viewBox="0 0 16 16"
   id="svg1"
   sodipodi:docname="org.gnome.Settings-location-symbolic.svg"
   inkscape:version="1.4.2 (ebf0e940d0, 2025-05-08)"
   xmlns:inkscape="http://www.inkscape.org/namespaces/inkscape"
   xmlns:sodipodi="http://sodipodi.sourceforge.net/DTD/sodipodi-0.dtd"
   xmlns="http://www.w3.org/2000/svg"
   xmlns:svg="http://www.w3.org/2000/svg">
  <defs
     id="defs1">
     <style
        id="current-color-scheme"
        type="text/css">
        .ColorScheme-Text { color:#363636; }
     </style>
  </defs>
  <sodipodi:namedview
     id="namedview1"
     pagecolor="#ffffff"
     bordercolor="#000000"
     borderopacity="0.25"
     inkscape:showpageshadow="2"
     inkscape:pageopacity="0.0"
     inkscape:pagecheckerboard="0"
     inkscape:deskcolor="#d1d1d1"
     inkscape:zoom="49.75"
     inkscape:cx="7.9899497"
     inkscape:cy="8"
     inkscape:window-width="1920"
     inkscape:window-height="1011"
     inkscape:window-x="0"
     inkscape:window-y="0"
     inkscape:window-maximized="1"
     inkscape:current-layer="svg1" />
  <path
     id="path1"
     style="fill:currentColor"
     class="ColorScheme-Text"
     d="M 8 1 C 5.2119 1 3 3.4141563 3 6.2851562 C 3 6.4890162 3.0170279 6.6575581 3.0292969 6.7988281 C 3.0430399 6.9570781 3.0592425 7.1233619 3.0859375 7.2949219 C 3.5933575 10.632822 5.6524312 12.949541 7.2695312 14.681641 L 8 15.464844 L 8.7304688 14.681641 C 10.347169 12.950041 12.406763 10.636022 12.914062 7.2949219 L 12.914062 7.2910156 C 12.937314 7.1412356 12.958263 6.9756281 12.970703 6.7988281 L 12.970703 6.7910156 C 12.982907 6.6510356 13 6.4859263 13 6.2851562 C 13 3.4141563 10.7881 1 8 1 z M 8 2 C 10.2094 2 12 3.9185563 12 6.2851562 C 12 6.4324363 11.987109 6.5689606 11.974609 6.7128906 C 11.965229 6.8568206 11.947651 7.000045 11.925781 7.140625 C 11.469531 10.153225 9.6 12.2862 8 14 C 6.4 12.2862 4.5305188 10.149825 4.0742188 7.140625 C 4.0523438 7.000035 4.0378906 6.8568206 4.0253906 6.7128906 C 4.0128906 6.5689606 4 6.4324363 4 6.2851562 C 4 3.9186563 5.7906 2 8 2 z M 8 5 A 1 1 0 0 0 7 6 A 1 1 0 0 0 8 7 A 1 1 0 0 0 9 6 A 1 1 0 0 0 8 5 z " />
</svg>

<svg width="16px" height="16px" version="1.1" viewBox="0 0 16 16" xmlns="http://www.w3.org/2000/svg">
 <path d="m8 1c-2.7881 0-5 2.4142-5 5.2852 0 0.20386 0.017028 0.3724 0.029297 0.51367 0.013743 0.15825 0.029946 0.32453 0.056641 0.49609 0.50742 3.3379 2.5665 5.6546 4.1836 7.3867l0.73047 0.7832 0.73047-0.7832c1.6167-1.7316 3.6763-4.0456 4.1836-7.3867v-0.0039063c0.023251-0.14978 0.044201-0.31539 0.056641-0.49219v-0.0078125c0.012204-0.13998 0.029297-0.30509 0.029297-0.50586 0-2.871-2.2119-5.2852-5-5.2852zm0 1c2.2094 0 4 1.9186 4 4.2852 0 0.14728-0.012891 0.2838-0.025391 0.42773-0.00938 0.14393-0.026958 0.28715-0.048828 0.42773-0.45625 3.0126-2.3258 5.1456-3.9258 6.8594-1.6-1.7138-3.4695-3.8502-3.9258-6.8594-0.021875-0.14059-0.036328-0.2838-0.048828-0.42773-0.0125-0.14393-0.025391-0.28045-0.025391-0.42773 0-2.3665 1.7906-4.2852 4-4.2852z" fill="#363636"/>
 <circle cx="8" cy="6" r="1" fill="#363636"/>
</svg>
